X: 274
T: Mai gaoyao
L: 1/16
M: 2/4
K: G
d2> e2 d2 B A [I:setbarnb 1]| 
d2> e2 d2 B A | 
d2> e2 d2 B A | 
B d B AG4 | 
d B2 d G2 G2 | 
d2 e2 d2 B A | 
d B2 d d2 B A | 
B d B AG4 |]

@@@ Tune index: 9148
